X:1
T:Fahey's
R:reel
M:4/4
L:1/8
S:Session playing
K:D
E2EF GFGA|Be^dB e2ef|gfeg fedB|1edBA GEFD:|2edBA GEE2|
|:Beee ^geee|~d2Ad BdAd|Beee ^geee|dcde fe ~e2|b2^ab BcdB|d2BA GEFD|E2EF GFGA|Be^dB e4:|

